X: 4770
T: Boys Of Lough Gowna, The
R: jig
M: 6/8
K: Gmajor
|:D|GFG BGB|dge dBG|=FEF AFA|c=fd cA^F|
DGA B2c|dfa gdB|cAG FGA|1 BGF G2:|2 BGF GBd||
gfg dgd|BdB GBd|cBc =fed|c=fd cA^F|
[1gfg dgd|BdB GBd|cAG FGA|BGF GBd:|
[2DGA B2c|dfa gdB|cAG FGA|BGF G2||

